!!!COM:	la Rue, Pierre de
!!!CDT:	~1452///-1518/11/20
!!!OPR:	Missa Sancta Dei genitrix
!!!ONM:	4
!!!OTL:	Sanctus
!!!AGN:	Mass; Sanctus
!!!SCT:	Rue1026d
!!!SCA:	Rue1026d
!!!voices:	4
!!!voices-OPR:	4
**kern	**kern	**kern	**kern
*staff4	*staff3	*staff2	*staff1
*Ivox	*Ivox	*Ivox	*Ivox
*I"Bassus	*I"Tenor	*I"Contra	*I"Discantus
*I'B	*I'T	*I'C	*I'D
*>[A,B,C,D]	*>[A,B,C,D]	*>[A,B,C,D]	*>[A,B,C,D]
*>A	*>A	*>A	*>A
*clefF4	*clefGv2	*clefGv2	*clefG2
*k[]	*k[]	*k[]	*k[]
*M3/1	*M3/1	*M3/1	*M3/1
*met(O)	*met(O)	*met(O)	*met(O)
!!section: Sanctus
!!!OMD: Sanctus
=1-	=1-	=1-	=1-
0E	0.r	0.r	0.r
1F	.	.	.
=2	=2	=2	=2
0E	0B	1r	0.r
.	.	0e	.
1C	1c	.	.
=3	=3	=3	=3
1D	0B	1f	1r
0E	.	0e	0b
.	1G	.	.
=4	=4	=4	=4
1AA	1A	1c	1cc
1r	0B	1d	0b
[1E	.	[1e	.
=5	=5	=5	=5
2E\]	1E	1e]	1g
2C/	.	.	.
1F	1r	2A/	1a
.	.	1d	.
[1G	1r	.	[1b
.	.	2e\	.
=6	=6	=6	=6
2G\]	0.r	2d\	1b]
2E\	.	2.g\	.
2G\	.	.	1e
.	.	4f\	.
2A\	.	1e	.
1F	.	.	1a
.	.	2d\	.
=7	=7	=7	=7
0E	1.B	1e	0g
.	.	1e	.
.	1.c	.	.
1F	.	1A	1a
=8	=8	=8	=8
0G	1.B	2G/	2d/
.	.	1d	2.g/
.	.	.	4f/
.	2G/	2B\	1e
1F	1A	2c\	.
.	.	2d\	2d/
=9	=9	=9	=9
1.E	0.B	0G	0e
4D\	.	.	.
4C/	.	.	.
1BB	.	1G	1d
=10	=10	=10	=10
1AA	[0.E	1A	2c/
.	.	.	2cc\
2GG/	.	1r	2b\
2.AA/	.	.	2a/
.	.	2r	2.cc\
4BB/	.	.	.
4C/	.	2c\	.
4D\	.	.	8b/L
.	.	.	8a/J
=11	=11	=11	=11
2E\	0.E_	2B\	2g/
2.AA/	.	2A/	2a/
.	.	2.c\	1e
4BB/	.	.	.
2.C/	.	.	.
.	.	8B/L	.
.	.	8A/J	.
.	.	2G/	2r
4BB/	.	.	.
[2AA/	.	2A/	[2e/
=12	=12	=12	=12
2AA/]	0.E_	2E/	4e/]
.	.	.	4f/
2GG/	.	2B\	2g/
1AA	.	4A/	4c/
.	.	4B\	4d/
.	.	4c\	4e/
.	.	4d\	4f/
1r	.	4e\	4g/
.	.	4f\	4a/
.	.	[2g\	4b\
.	.	.	4cc\
=13	=13	=13	=13
0.r	0.E_	4g\]	2b\
.	.	4f\	.
.	.	1e	1cc
.	.	4d\	4b\
.	.	4c\	4a/
.	.	2B\	2.g/
.	.	2c\	.
.	.	.	4a/
=14	=14	=14	=14
0.r	0.E_	2.G/	2b\
.	.	.	2cc\
.	.	4A/	.
.	.	2B\	2b\
.	.	2c\	2.g/
.	.	2B\	.
.	.	.	4a/
.	.	[2e\	4b\
.	.	.	4cc\
=15	=15	=15	=15
1r	0.E]	4e\]	2b\
.	.	4d\	.
.	.	2c\	1a
1r	.	1B	.
.	.	.	2g#i/
[1AA	.	2A/	1a
.	.	[2c\	.
=16	=16	=16	=16
2AA/]	0.r	2c\]	2r
1C	.	4B\	1e
.	.	4A/	.
.	.	2.G/	.
4BB/	.	.	1g
4AA/	.	4A/	.
2.GG/	.	4B\	.
.	.	4c\	.
.	.	[2d\	4f/
4AA/	.	.	4e/
=17	=17	=17	=17
4BB/	0.r	2d\]	2.d/
4C/	.	.	.
1D	.	4c\	.
.	.	4B\	4e/
.	.	1A	4f/
.	.	.	4g/
4C/	.	.	1a
4BB/	.	.	.
1AA	.	[1c	.
.	.	.	4g/
.	.	.	4f/
=18	=18	=18	=18
1.C	0.r	2c\]	1e
.	.	4B\	.
.	.	4A/	.
.	.	1G	1.g
4BB/	.	.	.
4AA/	.	.	.
1GG	.	2r	.
.	.	[2G/	4f/
.	.	.	4e/
=19	=19	=19	=19
2r	0.r	4G/]	1d
.	.	4A/	.
2.GG/	.	4B\	.
.	.	4c\	.
.	.	1d	2r
4AA/	.	.	.
4BB/	.	.	2.d/
4C/	.	.	.
1D	.	2r	.
.	.	.	4e/
.	.	2d\	4f/
.	.	.	4g/
=20	=20	=20	=20
2r	0.r	1.f	1a
2D\	.	.	.
1.F	.	.	2r
.	.	4e\	2a/
.	.	4d\	.
.	.	2.c\	[1cc
4E\	.	.	.
4D\	.	4d\	.
=21	=21	=21	=21
2.C/	0.r	4e\	2cc\]
.	.	4f\	.
.	.	1g	4b\
4D\	.	.	4a/
4E\	.	.	2.g/
4F\	.	.	.
1G	.	4f\	.
.	.	4e\	4a/
.	.	2d\	4b\
.	.	.	4cc\
4F\	.	[2f\	[2dd\
4E\	.	.	.
=22	=22	=22	=22
2D\	0.r	2f\]	2dd\]
1F	.	4e\	4cc\
.	.	4d\	4b\
.	.	2.c\	2a/
4E\	.	.	1cc
4D\	.	4d\	.
2.C/	.	[1e	.
.	.	.	4b\
4D\	.	.	4a/
=23	=23	=23	=23
2E\	0.r	2e\]	2g/
2F\	.	4d\	2a/
.	.	4c\	.
2G\	.	2B\	2b\
2A\	.	1e	1cc
1F	.	.	.
.	.	2d\	4b\
.	.	.	4a/
=24	=24	=24	=24
0E	0B	0e	1g
.	.	.	2r
.	.	.	2g/
1r	1c	1e	2a/
.	.	.	[2g/
=25	=25	=25	=25
1E	0.B	1.g	2g/]
.	.	.	4f/
.	.	.	4e/
0G	.	.	2d/
.	.	4f\	2.dd\
.	.	4e\	.
.	.	1d	.
.	.	.	4cc\
.	.	.	[2b\
=26	=26	=26	=26
1E	1G	0e	4b\]
.	.	.	4a/
.	.	.	1g
1C	0A	.	.
.	.	.	4f#i/
.	.	.	4e/
1D	.	1d	1f#i
=27	=27	=27	=27
0GG	0.B	2r	1g
.	.	2.d\	.
.	.	.	1r
.	.	4c\	.
.	.	4B\	.
.	.	4A/	.
2r	.	2G/	1dd
2GG/	.	2D/	.
=28	=28	=28	=28
2AA/	[0.El	2A/	2cc\
2GG/	.	2B\	2.b\
1AA	.	2c\	.
.	.	.	4a/
.	.	2A/	1a
1E	.	1B	.
.	.	.	2g#i/
=29	=29	=29	=29
0.AAl	0.E]	0.Al	0.al
!!LO:LB:i:g=z
=30||	=30||	=30||	=30||
*>B	*>B	*>B	*>B
*clefF4	*clefGv2	*clefGv2	*clefG2
*k[]	*k[]	*k[]	*k[]
*M2/1	*M2/1	*M2/1	*M2/1
*met(C|)	*met(C|)	*met(C|)	*met(C|)
!!section: Pleni sunt celi
!!!OMD: Pleni sunt celi
2.E\	0r	0r	0r
4F\	.	.	.
2G\	.	.	.
[2A\	.	.	.
=31	=31	=31	=31
2A\]	0r	2.A/	0r
4G\	.	.	.
4F\	.	4B\	.
2E\	.	2c\	.
2D\	.	[2d\	.
=32	=32	=32	=32
1G	0r	2d\]	2.d/
.	.	4c\	.
.	.	4B\	4e/
2r	.	2A/	2f/
[2E\	.	2G/	[2g/
=33	=33	=33	=33
2E\]	0r	1c	2g/]
2F\	.	.	4f/
.	.	.	4e/
2G\	.	2r	2d/
2A\	.	[2A/	2c/
=34	=34	=34	=34
1D	0r	2A/]	1f
.	.	2B\	.
2A\	.	2c\	2r
[2B\	.	2d\	[2d/
=35	=35	=35	=35
4B\]	0r	1G	2d/]
4A\	.	.	.
2G\	.	.	2e/
2F\	.	2d\	2f/
2E\	.	[2e\	2g/
=36	=36	=36	=36
1A	0r	4e\]	1c
.	.	4d\	.
.	.	2c\	.
2G\	.	2B\	2g/
[2F\	.	2A/	[2a/
=37	=37	=37	=37
2F\]	0r	1d	4a/]
.	.	.	4g/
2D\	.	.	2f/
2E\	.	2c\	2e/
[2G\	.	[2B\	2d/
=38	=38	=38	=38
4G\]	0r	2B\]	1g
4F\	.	.	.
2E\	.	2G/	.
2D\	.	2A/	2f/
2A\	.	[2c\	[2e/
=39	=39	=39	=39
1r	0r	4c\]	2e/]
.	.	4B\	.
.	.	2A/	2c/
2r	.	2G/	2d/
[2D\	.	2d\	[2f/
=40	=40	=40	=40
4D\]	0r	1r	4f/]
4E\	.	.	4e/
4F\	.	.	2d/
4G\	.	.	.
2A\	.	2r	2c/
2E\	.	[2G/	2g/
=41	=41	=41	=41
1G	0r	4G/]	1r
.	.	4A/	.
.	.	4B\	.
.	.	4c\	.
1F	.	2d\	2r
.	.	2A/	[2c/
=42	=42	=42	=42
1E	0r	1c	4c/]
.	.	.	4d/
.	.	.	4e/
.	.	.	4f/
2r	.	1B	2g/
[2D\	.	.	2d/
=43	=43	=43	=43
4D\]	0r	1A	1f
4E\	.	.	.
4F\	.	.	.
4G\	.	.	.
2A\	.	2r	1e
2E\	.	[2G/	.
=44	=44	=44	=44
2.G\	0r	4G/]	1d
.	.	4A/	.
.	.	4B\	.
4F\	.	4c\	.
4D\	.	2d\	2r
4E\	.	.	.
4F\	.	2A/	[2c/
4G\	.	.	.
=45	=45	=45	=45
2.A\	0r	2.c\	4c/]
.	.	.	4d/
.	.	.	4e/
8G\L	.	4B\	4f/
8F\J	.	.	.
2E\	.	4G/	2g/
.	.	4A/	.
2G\	.	4B\	2d/
.	.	4c\	.
=46	=46	=46	=46
2F\	0r	2.d\	2.f/
2D\	.	.	.
.	.	8c\L	4e/
.	.	8B\J	.
2F\	.	2A/	4c/
.	.	.	4d/
[2E\	.	2c\	4e/
.	.	.	4f/
=47	=47	=47	=47
4E\]	0r	2B\	2.g/
4D\	.	.	.
4E\	.	2G/	.
4F\	.	.	8f/L
.	.	.	8e/J
2G\	.	2B\	2d/
2D\	.	[2A/	2f/
=48	=48	=48	=48
2r	0r	4A/]	2e/
.	.	4G/	.
1A	.	4A/	2c/
.	.	4B\	.
.	.	2c\	2e/
2B\	.	2G/	[2d/
=49	=49	=49	=49
2G\	0r	2r	4d/]
.	.	.	4c/
4F\	.	1d	4d/
4E\	.	.	4e/
2D\	.	.	2f/
[2A\	.	2e\	2c/
=50	=50	=50	=50
2A\]	0r	2c\	2r
4G\	.	4B\	1g
4F\	.	4A/	.
2E\	.	2G/	.
2F\	.	[2d\	2a/
=51	=51	=51	=51
2.D\	0r	2d\]	2f/
.	.	4c\	4e/
4E\	.	4B\	4d/
2F\	.	2A/	2c/
2G\	.	2B\	[2g/
=52	=52	=52	=52
2E\	0r	2.G/	2g/]
1G	.	.	4f/
.	.	4A/	4e/
.	.	2B\	2d/
4F\	.	2c\	2e/
4E\	.	.	.
=53	=53	=53	=53
2F\	0r	2A/	2.c/
1A	.	1c	.
.	.	.	4d/
.	.	.	2e/
4G\	.	4B\	2f/
4F\	.	4A/	.
=54	=54	=54	=54
2G\	0r	2B\	2d/
2F\	.	1d	1f
1D	.	.	.
.	.	4c\	4e/
.	.	4B\	4d/
=55	=55	=55	=55
*^	*	*	*
0AAl\	0Al/	0r	0cl	0el
*v	*v	*	*	*
!!LO:LB:i:g=z
=56||	=56||	=56||	=56||
*>C	*>C	*>C	*>C
*clefF4	*clefGv2	*clefGv2	*clefG2
*k[]	*k[]	*k[]	*k[]
*M3/1	*M3/1	*M3/1	*M3/1
*met(O|)	*met(O|)	*met(O|)	*met(O|)
!!section: Osanna
!!!OMD: Osanna
1E	1r	0.r	0.r
1F	1A	.	.
1E	1B	.	.
=57	=57	=57	=57
1C	1A	1e	1r
1D	1F	1f	1r
1E	1G	1e	1b
=58	=58	=58	=58
1AA	1A	1c	1cc
1GG	1D	1d	1b
2r	1r	1e	1g
[2C/	.	.	.
=59	=59	=59	=59
2C/]	1r	1A	1a
1D	.	.	.
.	1B	2r	1b
1E	.	1G	.
.	[1c	.	2.e/
2AA/	.	2A/	.
.	.	.	4f/
=60	=60	=60	=60
0E	2c\]	2G/	2.g/
.	1B	2.g\	.
.	.	.	4a/
.	.	.	2b\
.	.	4f\	.
.	2G/	1e	1cc
1F	1A	.	.
.	.	2d\	4b\
.	.	.	4a/
=61	=61	=61	=61
1E	1B	0e	0g
2r	1E	.	.
2E\	.	.	.
2F\	2A/	2r	1r
2E\	2B-i\	[2e\	.
=62	=62	=62	=62
2C/	2A/	2e\]	1r
2D\	2F/	2f\	.
2E\	2G/	2e\	2r
2AA/	2A/	2c\	2e/
2.A\	2D/	2d\	2f/
.	[2A/	2e\	2e/
4G\	.	.	.
=63	=63	=63	=63
2F\	2A/]	2A/	2f/
2E\	2B-i\	2e\	2g/
1F	2A/	2c\	2a/
.	2F/	2A/	2d/
2E\	2G/	2c\	2e/
2D\	2A/	2d\	[2f/
=64	=64	=64	=64
1F	2D/	1A	4f/]
.	.	.	4g/
.	2d\	.	4a/
.	.	.	4f/
2E\	1e	2B\	1g
2C/	.	2c\	.
2D\	2d\	2A/	2f/
[2E\	2B\	[2e\	[2g/
=65	=65	=65	=65
2E\]	1c	4e\]	2g/]
.	.	4d\	.
1F	.	4c\	1a
.	.	4B\	.
.	1d	2A/	.
1G	.	1B	1d
.	1G	.	.
[2C/	.	[2c\	[2e/
=66	=66	=66	=66
2C/]	1r	2c\]	2e/]
2D\	.	4B\	2f/
.	.	4A/	.
2E\	1r	2G/	2g/
2F\	.	1c	1a
1D	1d	.	.
.	.	2B\	4g/
.	.	.	4f/
=67	=67	=67	=67
1C	1e	1c	2a/
.	.	.	2.g/
1G	2d\	2B\	.
.	.	.	4f/
.	2B\	2G/	1e
1F	2c\	1A	.
.	2d\	.	2d/
=68	=68	=68	=68
0.El	0.Gl	0.Bl	0.el
!!LO:LB:i:g=z
!!LO:TX:rj:i:Y=40:t=fine
=69||	=69||	=69||	=69||
*>D	*>D	*>D	*>D
*clefF4	*clefGv2	*clefGv2	*clefG2
*k[]	*k[]	*k[]	*k[]
*M3/1	*M3/1	*M3/1	*M3/1
*met(O|)	*met(O|)	*met(O|)	*met(O|)
!!section: Benedictus
!!!OMD: Benedictus
0.r	0.r	1B	1r
.	.	2c\	1r
.	.	1B	.
.	.	.	1b
.	.	2G/	.
=70	=70	=70	=70
0.r	0.r	2A/	2cc\
.	.	2B\	1b
.	.	2E/	.
.	.	2e\	2g/
.	.	2f\	2a/
.	.	[2e\	2b\
=71	=71	=71	=71
0.r	0.r	2e\]	1e
.	.	2c\	.
.	.	2d\	1b
.	.	2e\	.
.	.	4A/	1cc
.	.	4B\	.
.	.	4c\	.
.	.	4d\	.
=72	=72	=72	=72
0.r	0.r	4e\	2.b\
.	.	4f\	.
.	.	4g\	.
.	.	4e\	4g/
.	.	2f\	2a/
.	.	1e	2b\
.	.	.	2.e/
.	.	4d\	.
.	.	4c\	4f/
=73	=73	=73	=73
0.r	0.r	2B\	2g/
.	.	2A/	1a
.	.	2r	.
.	.	2e\	2g#i/
.	.	2.f\	1a
.	.	4e\	.
=74	=74	=74	=74
0.r	0.r	2d\	1r
.	.	2c\	.
.	.	2d\	1b
.	.	2e\	.
.	.	2A/	2.cc\
.	.	[2f\	.
.	.	.	4b\
=75	=75	=75	=75
0.r	0.r	2f\]	2a/
.	.	2e\	2g/
.	.	1d	2a/
.	.	.	2b\
.	.	1c	2e/
.	.	.	[2cc\
=76	=76	=76	=76
0.r	0.r	2r	2cc\]
.	.	2.d\	2b\
.	.	.	1a
.	.	4e\	.
.	.	4f\	.
.	.	4d\	.
.	.	4e\	1g
.	.	4d\	.
.	.	4c\	.
.	.	4B\	.
=77	=77	=77	=77
0.r	0.r	1A	2r
.	.	.	2.a/
.	.	2r	.
.	.	.	4b\
.	.	2A/	4cc\
.	.	.	4a/
.	.	1d	4b\
.	.	.	4a/
.	.	.	4g/
.	.	.	4f/
=78	=78	=78	=78
0.r	0.r	2.c\	0e
.	.	4B\	.
.	.	2A/	.
.	.	2G/	.
.	.	1F	1a
=79	=79	=79	=79
0.r	0.r	2E/	1g
.	.	1e	.
.	.	.	2r
.	.	4d\	2a/
.	.	4c\	.
.	.	1B	2dd\
.	.	.	2dd\
=80	=80	=80	=80
0.r	0.r	2.A/	2.cc\
.	.	4B\	4b\
.	.	4c\	2a/
.	.	4d\	.
.	.	1e	2g/
.	.	.	1f
.	.	2d\	.
=81	=81	=81	=81
0.r	0.r	1e	0e
.	.	2r	.
.	.	2A/	.
.	.	2B-i\	1r
.	.	[2A/	.
=82	=82	=82	=82
0.r	0.r	2A/]	2r
.	.	2F/	2a/
.	.	2G/	2b-i\
.	.	2A/	1a
.	.	2D/	.
.	.	2d\	2f/
=83	=83	=83	=83
0.r	0.r	2e\	2g/
.	.	1d	2a/
.	.	.	1d
.	.	2B\	.
.	.	2c\	1a
.	.	2d\	.
=84	=84	=84	=84
0.r	0.r	2G/	1b-i
.	.	2.d\	.
.	.	.	1a
.	.	4e\	.
.	.	1f	.
.	.	.	2f/
.	.	2e\	2g/
=85	=85	=85	=85
0.r	0.r	2d\	1a
.	.	2c\	.
.	.	1B	2.d/
.	.	.	4e/
.	.	2.A/	4f/
.	.	.	4e/
.	.	.	[2a/
.	.	4B\	.
=86	=86	=86	=86
0.r	0.r	4c\	4a/]
.	.	4d\	4b\
.	.	4e\	4cc\
.	.	4c\	4a/
.	.	3%2dV	2b\
.	.	.	1a
.	.	3A/Z	.
.	.	3c\V	.
.	.	3%2BZ	.
.	.	.	2g#i/
=87	=87	=87	=87
0.r	0.r	0.Al	0.al
!!LO:TX:i:Y=40:rj:t=Osanna ut supra
==	==	==	==
*-	*-	*-	*-
!!!RDF**kern: l=long note in original notation
!!!RDF**kern: i=editorial accidental
!!!RDF**kern: V=start of tuplet marker
!!!RDF**kern: Z=end of tuplet marker
!!!ENC:	Jesse Rodin; Chris Gage 10-25-2012
!!!END:	2012/11/12/
!!!EED:	Jesse Rodin
!!!EEV:	2012/12/15/
!!!ONB:	Translated from MusicXML and edited on 2012/12/15/ by Craig Sapp
!!muse2ps: T^@{OPR}^u^@{ONM}{. }@{OTL}^C^@{COM}^i2I150v85,85,85,150Q1c180
!!xmuse2ps: T^@{OPR}^u^@{ONM}{. }@{OTL}^C^@{COM}^i2I150v85,85,85,150
